X: 20
T:Weel May The Boatie Row. HS.20
M:2/4
Q:60
C:"P.T.Stone"
S:Henry Stables MS,Cumbria,late19thC
R:Scots Measure
O:Walthwaite,nr.Ambleside.
A:England
Z:vmp.Chris Partington
K:G
G|Bdde|dg a/g/f/e/|dBAG|BAAG|!
Bdde|dg a/g/f/e/|dB AB|G2zg|!
.g.d.d.d|.g.d.d.d|edeg|aba2|!
gbeg|dgdB|AG/A/ BA|G2zB|!
Bdde|dg a/g/f/e/|dBAG|BAAG|!
Bdde|dg a/g/f/e/|dBAB|G2z||
